build/img/icons/settings.svg

<svg width="38" height="33" viewBox="0 0 38 33" fill="none" xmlns="http://www.w3.org/2000/svg">
<path d="M32.3346 31.3335C32.3346 31.7756 32.159 32.1995 31.8465 32.512C31.5339 32.8246 31.11 33.0002 30.668 33.0002H7.33463C6.89261 33.0002 6.46868 32.8246 6.15612 32.512C5.84356 32.1995 5.66797 31.7756 5.66797 31.3335V16.3335H0.667969L17.8796 0.686859C18.1865 0.407655 18.5864 0.25293 19.0013 0.25293C19.4162 0.25293 19.8161 0.407655 20.123 0.686859L37.3346 16.3335H32.3346V31.3335ZM13.3213 21.0135L11.6696 21.9669L13.3363 24.8552L14.9913 23.9002C15.6552 24.5279 16.4573 24.9909 17.333 25.2519V27.1602H20.6696V25.2502C21.5451 24.9897 22.3472 24.5273 23.0113 23.9002L24.6646 24.8535L26.3346 21.9669L24.683 21.0135C24.8939 20.1259 24.8939 19.2012 24.683 18.3135L26.3346 17.3585L24.668 14.4702L23.013 15.4252C22.3479 14.7976 21.5446 14.3352 20.668 14.0752V12.1669H17.3313V14.0735C16.4557 14.3345 15.6536 14.7975 14.9896 15.4252L13.3363 14.4702L11.668 17.3602L13.3196 18.3135C13.1087 19.2012 13.1087 20.1259 13.3196 21.0135H13.3213ZM19.0013 22.1635C18.6729 22.1637 18.3476 22.0993 18.0441 21.9738C17.7406 21.8483 17.4648 21.6643 17.2325 21.4322C17.0001 21.2002 16.8157 20.9246 16.6898 20.6213C16.5639 20.3179 16.499 19.9928 16.4988 19.6644C16.4986 19.3359 16.5631 19.0107 16.6885 18.7072C16.814 18.4037 16.998 18.1279 17.2301 17.8955C17.4622 17.6631 17.7377 17.4787 18.0411 17.3529C18.3444 17.227 18.6696 17.1621 18.998 17.1619C19.661 17.1614 20.2971 17.4244 20.7662 17.8929C21.2354 18.3614 21.4992 18.9972 21.4996 19.6602C21.5001 20.3232 21.2371 20.9593 20.7686 21.4284C20.3001 21.8976 19.6643 22.1614 19.0013 22.1619V22.1635Z" fill="#5CC773"/>
</svg>

<svg width="38" height="33" fill="none" xmlns="http://www.w3.org/2000/svg">
    <path d="M32.335 31.334A1.667 1.667 0 0 1 30.668 33H7.335a1.667 1.667 0 0 1-1.667-1.666v-15h-5L17.88.687a1.667 1.667 0 0 1 2.243 0l17.212 15.647h-5v15zM13.32 21.014l-1.651.953 1.666 2.888 1.655-.955a5.834 5.834 0 0 0 2.342 1.352v1.908h3.337v-1.91a5.834 5.834 0 0 0 2.341-1.35l1.654.954 1.67-2.887-1.652-.953a5.84 5.84 0 0 0 0-2.7l1.652-.956-1.667-2.888-1.655.955a5.834 5.834 0 0 0-2.345-1.35v-1.908h-3.337v1.906a5.835 5.835 0 0 0-2.341 1.352l-1.654-.955-1.668 2.89 1.652.954a5.84 5.84 0 0 0 0 2.7h.001zm5.68 1.15a2.501 2.501 0 1 1-.003-5A2.501 2.501 0 0 1 19 22.163v.002z" fill="#5CC773"/>
</svg>
